X: 41531
T: Uncle Louis Cutler's
R: polka
M: 2/4
K: Gmajor
|:DG GD|GF ED|Ec EF|GF ED|
DG GD|GF ED|Ec EF|G2 G2:|
|:B2 BA|GF ED|Ec EF|GF ED|
B2 BA|GF ED|Ec EF|G2 G2:|

